X:215
T:Slack Away Yer Reefy Tayckle
M:3/4
L:1/8
K:A
EE|\
A2 A2 AB|c2 A2 BB|B2 B2 Bc|d4 BB|
B3  BBc |d2 B2 GG|E2 F2 G2|z4 EE|
A3  AAB |c2 A2 AA|B2 e2 ee|c2 A2 EE|
A3  AAB |c2 A2 d2|B2 E2 G2|A4 ||
